X:1
T:Fais paraitre ton jour 
L:1/8
Q:1/4=130
M:4/4
K:G
V:1 treble transpose=-12 nm="Nylon Guitar" snm="GuitNyl"
V:1
 z4 B2 B2 |"G" B4"D" A2 d2 |"Em" G4"Bm" F2 F2 |"C" E4"D" D2 A2 |"G" B4"D" A4 | z4 B2 B2 | %6
w: fais pa|rai tre ton|jour et le|temps de ta|gra ce|fais pa|
"G" B4"D" A2 d2 |"Em" G4"Bm" z2 F2 |"C" E2 G2"D4" G2"D" F2 |"G" !stemless!G8 |] %10
w: rai tre ton|jour que|l'hom me soit sau|vé|

